X: 29777
T: O Ven Aeg, Ven Aalin Aeg
R: jig
M: 6/8
K: Eminor
B2B B2A|G2F E3|e2f g2f|e2d B3|Bcd e2B|
c2A AGF|A2A B2B|A2G E3|GBG EFG|A2F E3||

